coreui/free/cil-coffee.svg

<svg xmlns="http://www.w3.org/2000/svg" viewBox="0 0 512 512">
  <path fill="var(--ci-primary-color, currentColor)" d="M191.5,376h97A111.627,111.627,0,0,0,400,264.5V248h24a72,72,0,0,0,0-144H80V264.5A111.627,111.627,0,0,0,191.5,376ZM400,136h24a40,40,0,0,1,0,80H400Zm-288,0H368V264.5A79.589,79.589,0,0,1,288.5,344h-97A79.589,79.589,0,0,1,112,264.5Z" class="ci-primary"/>
  <rect width="480" height="32" x="16" y="416" fill="var(--ci-primary-color, currentColor)" class="ci-primary"/>
</svg>

<svg viewBox="0 0 512 512" xmlns="http://www.w3.org/2000/svg"><g><path d="M191.5 376h97v0c61.55-.07 111.43-49.95 111.5-111.5V248h24v0c39.76 0 72-32.24 72-72 0-39.77-32.24-72-72-72H80v160.5l0 0c.06 61.55 49.94 111.43 111.5 111.5ZM400 136h24v0c22.09 0 40 17.9 40 40 0 22.09-17.91 40-40 40h-24Zm-288 0h256v128.5 0c-.05 43.88-35.62 79.45-79.5 79.5h-97 -.001c-43.89-.05-79.46-35.62-79.5-79.5Z"/><path d="M16 416h480v32H16Z"/></g></svg>
